X:20301
T:Y Pibydd Du
R:Polka
B:Tuneworks Tunebook 2 (https://www.tuneworks.co.uk/)
G:Tuneworks
Z:Jon Warbrick <jon.warbrick@googlemail.com>
M:4/4
L:1/8
K:D
|: "D" F2 G2 AF z2 | "D" D2 E2 D>E F2 | "G" G2 B2"D" AF z2 | "A7" E3 F"D" D4 |
"D" F2 G2 AF z2 | "D" D2 E2 D>E F2 | "G" G2 B2"D" AF z2 | "A7" E3 F"D" D4 :|
|: "D" A2 A2 F>G A2 | "A7" G2 E2"D" F4 | "D" A2 A2 F>G A2 | "A7" G2 E2"D" F2 D2 |
"G" G2 B2"D" AF z2 | "D" D2 E2 D>E F2 | "G" G2 B2"D" AF z2 | "A7" E3 F"D" D4 :|
